X:9911
T:Lou diziou be Pierrou
C:MCTB 1/43
M:3/8
L:1/8
K:C
c|dg2|d2g|a/g/fe|dec|\
dg2|d2g|a/g/fe|d2:|
|:f|ed2|G2c|B/c/df|edf|\
ed2|G2c|B/c/dB|c2:|
